src/next/cmd/lc_insertfield.svg

<svg enable-background="new 0 0 128 128" height="24" viewBox="0 0 24 24" width="24" xmlns="http://www.w3.org/2000/svg" xmlns:xlink="http://www.w3.org/1999/xlink"><radialGradient id="a" cx="102" cy="112.3047" gradientTransform="matrix(.94807 0 0 .9510679 4.74553 4.302306)" gradientUnits="userSpaceOnUse" r="139.55859"><stop offset="0" stop-color="#fafafa"/><stop offset=".2722" stop-color="#fff"/><stop offset=".5313" stop-color="#fafafa"/><stop offset=".8449" stop-color="#ebecec"/><stop offset="1" stop-color="#e1e2e3"/></radialGradient><radialGradient id="b" cx="102.23185" cy="111.962458" gradientUnits="userSpaceOnUse" r="135.18756"><stop offset="0" stop-color="#f1f1f1"/><stop offset=".24349999" stop-color="#fcfcfc"/><stop offset=".2722" stop-color="#fff"/></radialGradient><linearGradient id="c" gradientTransform="matrix(1.8 0 0 1.4960829 -200.93953 -68.583139)" gradientUnits="userSpaceOnUse" x1="154.28152" x2="154.44292" y1="104.82231" y2="130.74823"><stop offset="0" stop-color="#4c78fd"/><stop offset="1" stop-color="#85a2fe"/></linearGradient><filter id="d"><feGaussianBlur stdDeviation="1.0394514"/></filter><filter id="e"><feGaussianBlur stdDeviation=".50063244"/></filter><g transform="matrix(.1875 0 0 .1875 0 .00003)"><path d="m14.06252 8.9555824.01953 57.1992186-.01954 58.648579h.04102 64.60949 35.14256l.00001-36.390766v-44.515625-34.9414066h-35.142564-64.60949z" filter="url(#d)" opacity=".553425" stroke-width="1.006155"/><path d="m14.06252 8.9868324.01953 57.1835936-.01954 58.632954h.04102 64.60949 35.14256l.00001-36.390766v-44.484375-34.9414066h-35.142564-64.60949z" filter="url(#d)" opacity=".306849" stroke-width="1.006155"/><path d="m14.06252 9.955582.01953 56.699219-.01954 58.148579h.04102 64.60949 35.14256l.00001-36.390766v-43.515625-34.941407h-35.142564-64.60949z" filter="url(#d)" opacity=".306849" stroke-width="1.006155"/><path d="m22.006058 10.673272.01426 111.634548 61.575678-.0001c.53 0 1.039-.211 1.414-.586l31.484004-33.210564c.375-.375.586-.884.586-1.414l.0812-76.423884z" filter="url(#e)" opacity=".89589" transform="matrix(1.0090419 0 0 1.003276 -6.219967 -.04239)"/><path d="m15.984395 10.66652.0078 55.27539-.0078 56.72475h.01563 62.181756 33.818359l-.0586-56.72475.0586-55.27539h-33.818364-62.181756z" fill="url(#b)"/><path d="m22.56252 16.539567c-.522387 0-.947265.427133-.947265.951172l.162109 48.36914-.162114 49.818501c0 .52404.800099 1.4524.947265.95117h.322266 55.025505c.02563 0 .04875-.0135.07422-.0156l27.349604-.008c.52333 0 .94727-.42714.94727-.95118l.26563-27.824358.15625-.152343c.17729-.17785.27734-.421743.27734-.671875l-.21289-21.146485.21289-21.146484c0-.250132-.10005-.495978-.27734-.673828l-.15625-.152344-.26562-26.375c0-.524039-.42394-.951172-.94727-.951172l-27.353515-.0078c-.02409-.0019-.04608-.01367-.07031-.01367h-55.025509z" fill="url(#a)"/><g fill="#b3b3b3"><path d="m26.6667 21.3332h74.66676v5.33334h-74.66676z"/><path d="m26.6667 31.99988h74.66676v5.33334h-74.66676z"/><path d="m26.6667 42.66656h74.66676v5.33334h-74.66676z"/><path d="m26.6667 53.33324h74.66676v5.33334h-74.66676z"/><path d="m26.6667 63.99992h74.66676v5.33334h-74.66676z"/><path d="m26.6667 74.6666h74.66676v5.33334h-74.66676z"/><path d="m26.6667 85.33328h74.66676v5.33334h-74.66676z"/><path d="m26.6667 95.99996h74.66676v5.33334h-74.66676z"/><path d="m26.6667 106.66664h74.66676v5.33334h-74.66676z"/></g><path d="m42.66672 79.99994h58.66674v24.00003h-58.66674z" fill="url(#c)" stroke-width="1.868384"/><path d="m26.666705 69.339028c-.000001 15.998097-.000003 31.996192-.000005 47.994292h16.00002v-5.33334h-10.66668v-37.33338h10.66668v-5.33334z" fill="#333"/><path d="m117.33347 69.339028c.00001 15.998097.00001 31.996192.00001 47.994292h-16.00002v-5.33334h10.66668v-37.33338h-10.66668v-5.33334z" fill="#333"/></g></svg>

<?xml version="1.0" encoding="UTF-8" standalone="no"?>
<svg
   xmlns:dc="http://purl.org/dc/elements/1.1/"
   xmlns:cc="http://creativecommons.org/ns#"
   xmlns:rdf="http://www.w3.org/1999/02/22-rdf-syntax-ns#"
   xmlns:svg="http://www.w3.org/2000/svg"
   xmlns="http://www.w3.org/2000/svg"
   xmlns:xlink="http://www.w3.org/1999/xlink"
   xmlns:sodipodi="http://sodipodi.sourceforge.net/DTD/sodipodi-0.dtd"
   xmlns:inkscape="http://www.inkscape.org/namespaces/inkscape"
   enable-background="new 0 0 128 128"
   height="24"
   viewBox="0 0 24 24"
   width="24"
   version="1.1"
   id="svg100"
   sodipodi:docname="lc_insertfield.svg"
   inkscape:version="0.92.4 (unknown)"
   inkscape:export-filename="/home/rizmut/Dokumen/Rizmut/Github/libreoffice-style-karasa-jaga/build/next/cmd/lc_insertfield.png"
   inkscape:export-xdpi="18"
   inkscape:export-ydpi="18">
  <metadata
     id="metadata106">
    <rdf:RDF>
      <cc:Work
         rdf:about="">
        <dc:format>image/svg+xml</dc:format>
        <dc:type
           rdf:resource="http://purl.org/dc/dcmitype/StillImage" />
        <dc:title></dc:title>
      </cc:Work>
    </rdf:RDF>
  </metadata>
  <defs
     id="defs104">
    <radialGradient
       inkscape:collect="always"
       xlink:href="#d"
       id="radialGradient917"
       gradientUnits="userSpaceOnUse"
       gradientTransform="matrix(0.94807,0,0,0.9510679,4.74553,4.302306)"
       cx="102"
       cy="112.3047"
       r="139.55859" />
    <radialGradient
       inkscape:collect="always"
       xlink:href="#e"
       id="radialGradient924"
       gradientUnits="userSpaceOnUse"
       cx="100.80984"
       cy="112.93461"
       r="135.18756"
       gradientTransform="translate(1.42201,-0.972152)" />
    <linearGradient
       id="k"
       gradientTransform="matrix(1.8,0,0,1.4960829,-200.93953,-68.583139)"
       gradientUnits="userSpaceOnUse"
       x1="154.28152"
       x2="154.44292"
       y1="104.82231"
       y2="130.74823">
      <stop
         offset="0"
         stop-color="#4c78fd"
         id="stop78" />
      <stop
         offset="1"
         stop-color="#85a2fe"
         id="stop80" />
    </linearGradient>
  </defs>
  <sodipodi:namedview
     pagecolor="#ffffff"
     bordercolor="#666666"
     borderopacity="1"
     objecttolerance="10"
     gridtolerance="10"
     guidetolerance="10"
     inkscape:pageopacity="0"
     inkscape:pageshadow="2"
     inkscape:window-width="1366"
     inkscape:window-height="714"
     id="namedview102"
     showgrid="true"
     inkscape:zoom="7.3750001"
     inkscape:cx="14.878688"
     inkscape:cy="22.897381"
     inkscape:window-x="0"
     inkscape:window-y="28"
     inkscape:window-maximized="1"
     inkscape:current-layer="g89">
    <inkscape:grid
       type="xygrid"
       id="grid936"
       spacingx="0.5"
       spacingy="0.5"
       empspacing="2" />
  </sodipodi:namedview>
  <linearGradient
     id="a"
     gradientUnits="userSpaceOnUse"
     x1="88.591797"
     x2="71.262016"
     y1="96.592697"
     y2="79.262917">
    <stop
       offset="0"
       stop-color="#fff"
       id="stop2" />
    <stop
       offset="1"
       stop-color="#555753"
       id="stop4" />
  </linearGradient>
  <linearGradient
     id="b"
     gradientUnits="userSpaceOnUse"
     x1="85.219681"
     x2="61.336319"
     y1="93.219681"
     y2="69.336319">
    <stop
       offset="0"
       id="stop7" />
    <stop
       offset="1"
       stop-color="#393b38"
       id="stop9" />
  </linearGradient>
  <linearGradient
     id="c"
     gradientUnits="userSpaceOnUse"
     x1="96"
     x2="88.000198"
     y1="104"
     y2="96.000198">
    <stop
       offset="0"
       stop-color="#888a85"
       id="stop12" />
    <stop
       offset=".0072"
       stop-color="#8c8e89"
       id="stop14" />
    <stop
       offset=".0673"
       stop-color="#abaca9"
       id="stop16" />
    <stop
       offset=".1347"
       stop-color="#c5c6c4"
       id="stop18" />
    <stop
       offset=".2115"
       stop-color="#dbdbda"
       id="stop20" />
    <stop
       offset=".3012"
       stop-color="#ebebeb"
       id="stop22" />
    <stop
       offset=".4122"
       stop-color="#f7f7f6"
       id="stop24" />
    <stop
       offset=".5679"
       stop-color="#fdfdfd"
       id="stop26" />
    <stop
       offset="1"
       stop-color="#fff"
       id="stop28" />
  </linearGradient>
  <radialGradient
     id="d"
     cx="102"
     cy="112.3047"
     gradientTransform="matrix(0.94807,0,0,0.9510679,3.32352,5.274458)"
     gradientUnits="userSpaceOnUse"
     r="139.55859">
    <stop
       offset="0"
       stop-color="#fafafa"
       id="stop37" />
    <stop
       offset=".2722"
       stop-color="#fff"
       id="stop39" />
    <stop
       offset=".5313"
       stop-color="#fafafa"
       id="stop41" />
    <stop
       offset=".8449"
       stop-color="#ebecec"
       id="stop43" />
    <stop
       offset="1"
       stop-color="#e1e2e3"
       id="stop45" />
  </radialGradient>
  <radialGradient
     id="e"
     cx="100.80984"
     cy="112.93461"
     gradientUnits="userSpaceOnUse"
     r="135.18756">
    <stop
       offset="0"
       stop-color="#f1f1f1"
       id="stop56" />
    <stop
       offset=".24349999"
       stop-color="#fcfcfc"
       id="stop58" />
    <stop
       offset=".2722"
       stop-color="#fff"
       id="stop60" />
  </radialGradient>
  <filter
     id="f">
    <feGaussianBlur
       stdDeviation="1.0394514"
       id="feGaussianBlur63" />
  </filter>
  <filter
     id="g">
    <feGaussianBlur
       stdDeviation=".50063244"
       id="feGaussianBlur66" />
  </filter>
  <filter
     id="h">
    <feGaussianBlur
       stdDeviation=".40750996"
       id="feGaussianBlur69" />
  </filter>
  <filter
     id="i">
    <feGaussianBlur
       stdDeviation=".4901192"
       id="feGaussianBlur72" />
  </filter>
  <filter
     id="j">
    <feGaussianBlur
       stdDeviation=".90565481"
       id="feGaussianBlur75" />
  </filter>
  <g
     id="g89"
     transform="matrix(0.1875,0,0,0.1875,0,2.9999999e-5)">
    <path
       sodipodi:nodetypes="cccccccccccc"
       id="path78"
       d="m 14.06252,8.9555824 0.01953,57.1992186 -0.01954,58.648579 h 0.04102 64.60949 35.14256 l 1e-5,-36.390766 V 43.896989 8.9555824 H 78.713026 14.103536 Z"
       style="opacity:0.55342503;stroke-width:1.00615478;filter:url(#f)"
       inkscape:connector-curvature="0" />
    <path
       sodipodi:nodetypes="cccccccccccc"
       id="path80"
       d="m 14.06252,8.9868324 0.01953,57.1835936 -0.01954,58.632954 h 0.04102 64.60949 35.14256 l 1e-5,-36.390766 V 43.928239 8.9868324 H 78.713026 14.103536 Z"
       style="opacity:0.30684904;stroke-width:1.00615478;filter:url(#f)"
       inkscape:connector-curvature="0" />
    <path
       sodipodi:nodetypes="cccccccccccc"
       id="path84"
       d="m 14.06252,9.955582 0.01953,56.699219 -0.01954,58.148579 h 0.04102 64.60949 35.14256 l 1e-5,-36.390766 V 44.896989 9.955582 H 78.713026 14.103536 Z"
       style="opacity:0.30684904;stroke-width:1.00615478;filter:url(#f)"
       inkscape:connector-curvature="0" />
    <path
       sodipodi:nodetypes="cccccccc"
       id="path82"
       transform="matrix(1.0090419,0,0,1.003276,-6.219967,-0.04239)"
       d="m 22.006058,10.673272 0.01426,111.634548 61.575678,-1e-4 c 0.53,0 1.039,-0.211 1.414,-0.586 L 116.494,88.511156 c 0.375,-0.375 0.586,-0.884 0.586,-1.414 l 0.0812,-76.423884 z"
       inkscape:connector-curvature="0"
       style="opacity:0.89589;filter:url(#g)" />
    <path
       sodipodi:nodetypes="ccccccccccc"
       id="path86"
       d="m 15.984395,10.66652 0.0078,55.27539 -0.0078,56.72475 h 0.01563 62.181756 33.818359 l -0.0586,-56.72475 0.0586,-55.27539 H 78.181776 16.00002 Z"
       style="fill:url(#radialGradient924)"
       inkscape:connector-curvature="0" />
    <path
       sodipodi:nodetypes="ccccscscccccccccccccscc"
       id="path88"
       d="m 22.56252,16.539567 c -0.522387,0 -0.947265,0.427133 -0.947265,0.951172 l 0.162109,48.36914 -0.162114,49.818501 c 0,0.52404 0.800099,1.4524 0.947265,0.95117 h 0.322266 55.025505 c 0.02563,0 0.04875,-0.0135 0.07422,-0.0156 l 27.349604,-0.008 c 0.52333,0 0.94727,-0.42714 0.94727,-0.95118 l 0.26563,-27.824358 0.15625,-0.152343 c 0.17729,-0.17785 0.27734,-0.421743 0.27734,-0.671875 l -0.21289,-21.146485 0.21289,-21.146484 c 0,-0.250132 -0.10005,-0.495978 -0.27734,-0.673828 l -0.15625,-0.152344 -0.26562,-26.375 c 0,-0.524039 -0.42394,-0.951172 -0.94727,-0.951172 l -27.353515,-0.0078 c -0.02409,-0.0019 -0.04608,-0.01367 -0.07031,-0.01367 H 22.884786 Z"
       style="fill:url(#radialGradient917)"
       inkscape:connector-curvature="0" />
    <g
       id="g4848">
      <path
         inkscape:connector-curvature="0"
         d="m 26.6667,21.3332 h 74.66676 v 5.33334 H 26.6667 Z"
         id="path114"
         style="fill:#b3b3b3;fill-opacity:1"
         sodipodi:nodetypes="ccccc" />
      <path
         sodipodi:nodetypes="ccccc"
         style="fill:#b3b3b3;fill-opacity:1"
         id="path4823"
         d="m 26.6667,31.99988 h 74.66676 v 5.33334 H 26.6667 Z"
         inkscape:connector-curvature="0" />
      <path
         sodipodi:nodetypes="ccccc"
         style="fill:#b3b3b3;fill-opacity:1"
         id="path4825"
         d="m 26.6667,42.66656 h 74.66676 V 47.9999 H 26.6667 Z"
         inkscape:connector-curvature="0" />
      <path
         inkscape:connector-curvature="0"
         d="m 26.6667,53.33324 h 74.66676 v 5.33334 H 26.6667 Z"
         id="path4827"
         style="fill:#b3b3b3;fill-opacity:1"
         sodipodi:nodetypes="ccccc" />
      <path
         sodipodi:nodetypes="ccccc"
         style="fill:#b3b3b3;fill-opacity:1"
         id="path4829"
         d="m 26.6667,63.99992 h 74.66676 v 5.33334 H 26.6667 Z"
         inkscape:connector-curvature="0" />
      <path
         inkscape:connector-curvature="0"
         d="m 26.6667,74.6666 h 74.66676 v 5.33334 H 26.6667 Z"
         id="path4831"
         style="fill:#b3b3b3;fill-opacity:1"
         sodipodi:nodetypes="ccccc" />
      <path
         inkscape:connector-curvature="0"
         d="m 26.6667,85.33328 h 74.66676 v 5.33334 H 26.6667 Z"
         id="path4833"
         style="fill:#b3b3b3;fill-opacity:1"
         sodipodi:nodetypes="ccccc" />
      <path
         sodipodi:nodetypes="ccccc"
         style="fill:#b3b3b3;fill-opacity:1"
         id="path4835"
         d="m 26.6667,95.99996 h 74.66676 v 5.33334 H 26.6667 Z"
         inkscape:connector-curvature="0" />
      <path
         inkscape:connector-curvature="0"
         d="m 26.6667,106.66664 h 74.66676 v 5.33334 H 26.6667 Z"
         id="path4837"
         style="fill:#b3b3b3;fill-opacity:1"
         sodipodi:nodetypes="ccccc" />
    </g>
    <path
       sodipodi:nodetypes="ccccc"
       id="path126"
       d="m 42.66672,79.99994 h 58.66674 v 24.00003 H 42.66672 Z"
       style="fill:url(#k);stroke-width:1.86838436"
       inkscape:connector-curvature="0" />
    <path
       sodipodi:nodetypes="ccccccccc"
       inkscape:connector-curvature="0"
       id="rect947"
       d="m 26.666705,69.339028 c -1e-6,15.998097 -3e-6,31.996192 -5e-6,47.994292 h 16.00002 v -5.33334 H 32.00004 V 74.6666 h 10.66668 v -5.33334 z"
       style="opacity:1;vector-effect:none;fill:#333333;fill-opacity:1;stroke:none;stroke-width:1.22834647;stroke-linecap:butt;stroke-linejoin:miter;stroke-miterlimit:4;stroke-dasharray:none;stroke-dashoffset:0;stroke-opacity:1" />
    <path
       style="opacity:1;vector-effect:none;fill:#333333;fill-opacity:1;stroke:none;stroke-width:1.22834647;stroke-linecap:butt;stroke-linejoin:miter;stroke-miterlimit:4;stroke-dasharray:none;stroke-dashoffset:0;stroke-opacity:1"
       d="m 117.33347,69.339028 c 10e-6,15.998097 10e-6,31.996192 10e-6,47.994292 h -16.00002 v -5.33334 h 10.66668 V 74.6666 h -10.66668 v -5.33334 z"
       id="path4821"
       inkscape:connector-curvature="0"
       sodipodi:nodetypes="ccccccccc" />
  </g>
</svg>
